X:1
T:The March to the Battle of Aughrim  "137 bpm"
M:C|
L:1/8
Q:80
C:arr. Mark Kaufman
S:Polka
K:HP
|: {g}f3/4e/4d3/4c/4{g}B3/4c/4d3/4e/4 | \
{g}f3/4e/4d3/4c/4{g}B3/2f/2 | \
{g}e3/4d/4c3/4e/4{ag}ae |
{gfg}fe{g}f3/4g/4a | \
{g}f3/4e/4d3/4c/4{g}B3/4c/4d3/4e/4 | \
{g}f3/4e/4d3/4c/4{g}B3/2f/2 |
{g}e3/4d/4c3/4e/4{ag}ae | \
{gcd}c{e}B{GdG}B2 :| \
{g}fe{gef}e{g}d3/4c/4 |
{g}B{e}A{Gdc}d3/2A/2 | \
{g}B{e}A{Gdc}d{e}A | \
{gef}B{G}A{g}B3/4c/4d3/4e/4 |
{g}fe{gef}e{g}d3/4c/4 | \
{g}B{e}A{Gdc}d3/2f/2 | \
{g}e3/4d/4c3/4e/4{ag}ae |
{gcd}c{e}B{GdG}B2 :|
